X: 1
T: Fox On The Prowl
M: 4/4
L: 1/8
R: reel
K: Dmaj
A|d2 fd eA~A2|BAFA BAFA|AFde faaf|g2 fg|egfe|
d2 fd eA~A2|BAFA BAFA|AFde fbaf|edef d3 :|
defd A2 AB|defd e~A3|BAFA defab|faf e3 a|
bf~f2 afef|deed edBA|FA~A2 FAdf|edef d3 :|
